X:1
T:Title
%%score { ( 1 3 ) | 2 }
L:1/8
M:4/4
K:C
V:1 treble nm="Grand Piano"
V:3 treble 
V:2 bass 
V:1
 z4 z2[Q:1/4=96] [CE][DF] | [EG][FA][EG][DF] EDEF | [EG]6 [EG]2 | AAAA [Ac][Ac][GB][FA] | %4
 [EG]6 [Ec]2 | z4 z2 e2 | [Fd]2 [Ec]2 [Ge]3 [EG] | [FA][FB][Gc][Ad] e2 c2 |[M:7/8] d2 B2 [Ec]3 | %9
[M:1/8] [Ec] | %10
[M:4/4] BBBc d2 e2[Q:1/4=95][Q:1/4=93][Q:1/4=92][Q:1/4=90][Q:1/4=89][Q:1/4=87][Q:1/4=86][Q:1/4=84][Q:1/4=83][Q:1/4=81][Q:1/4=80][Q:1/4=78][Q:1/4=77][Q:1/4=75][Q:1/4=74] | %11
[M:3/4] dc ed [Ec]2 |] %12
V:2
 z4 z2 [C,G,]2 | [C,C][C,C][C,C][C,G,] [C,G,C][F,G,B,][E,G,C][D,G,D] | [C,C]6 [C,C]2 | %3
 [F,CF][F,CF][F,CF][F,CF] [F,C][F,C][F,C][F,C] | [C,C]6 [C,C]2 | %5
 [G,DF][G,DF][G,DF][G,CE] [G,B,F]2 .[G,A,G]2 | [C,C]2 [C,G,]2 [C,C]3 [C,C] | %7
 [F,C][D,G,][E,C][F,C][K:treble] [G,CG]2 [A,CE]2 |[M:7/8] [F,A,F]2 [G,F]2[K:bass] [C,G,]3 | %9
[M:1/8] [C,G,] |[M:4/4] [G,D][G,D][G,D][K:treble][G,E] [G,B,F]2 [G,B,G]2 | %11
[M:3/4] [G,CF][G,CE] [G,CG][G,F][K:bass] [C,G,]2 |] %12
V:3
 x8 | x8 | x8 | x8 | x8 | BBBc d2 z B, | x8 | x8 |[M:7/8] x7 |[M:1/8] x |[M:4/4] x8 |[M:3/4] x6 |] %12

